assets/illustrations/default/attendance-1.svg

<svg xmlns="http://www.w3.org/2000/svg" width="1080" height="1081" fill="none"><path fill="#C5D9FB" d="M522.348 1002.68c265.841 0 481.352-215.512 481.352-481.353S788.189 39.979 522.348 39.979 41 255.486 41 521.327s215.507 481.353 481.348 481.353"/><path fill="#0C4EC0" d="M346.119 802.514 283 940.148s57.178 30.448 113.614 46.786C544.881 1030.01 683 975.547 683 975.547l-72.773-145.804z"/><path fill="#35DE90" d="M806.5 292.167c0-75.56 61.19-136.75 136.749-136.75 75.561 0 136.751 61.19 136.751 136.75 0 75.559-61.19 136.749-136.751 136.749-75.559 0-136.749-61.19-136.749-136.749"/><path fill="#35DE90" d="M1079.75 292.166c0 75.559-61.19 136.502-136.502 136.502-75.559 0-136.501-61.191-136.501-136.502 0-75.559 61.19-136.502 136.501-136.502s136.502 61.191 136.502 136.502"/><path fill="#fff" fill-rule="evenodd" d="M984.161 230.08a73.26 73.26 0 0 0-41.156-12.659c-19.469 0-38.446 7.943-52.247 21.843a74.66 74.66 0 0 0-21.687 52.621c0 14.645 4.435 29.041 12.568 41.452 8.133 12.162 19.716 21.842 33.27 27.303 13.555 5.709 28.342 7.198 42.636 4.22s27.602-9.929 37.706-20.354c10.349-10.425 17.249-23.58 20.209-37.977s1.48-29.289-4.19-42.94c-5.42-13.652-14.787-25.318-27.109-33.509m-89.213-10.922c14.294-9.68 31.051-14.644 48.302-14.644 23.166 0 45.101 9.184 61.37 25.566 16.26 16.382 25.38 38.721 25.38 61.805 0 17.375-5.18 34.253-14.54 48.65a88.34 88.34 0 0 1-38.939 32.268c-15.773 6.701-33.27 8.439-50.275 4.964-16.758-3.475-32.285-11.666-44.607-24.077-12.076-12.162-20.454-27.8-23.905-44.927-3.45-16.878-1.725-34.501 4.929-50.635 6.901-15.638 17.991-29.289 32.285-38.97m43.62 102.016c1.232 1.241 2.957 1.986 4.682 1.986s3.452-.745 4.684-1.986l34.009-34.253c1.232-1.241 1.971-2.979 1.971-4.716s-.739-3.475-1.971-4.717q-.74-.744-2.218-1.489c-.739-.248-1.725-.496-2.464-.496-.74 0-1.725.248-2.465.496q-1.109.373-2.217 1.489l-29.329 29.29-29.326-29.29q-.74-.744-2.218-1.489c-.74-.248-1.725-.496-2.465-.496s-1.725.248-2.464.496q-1.109.373-2.218 1.489c-1.232 1.242-1.972 2.979-1.972 4.717s.74 3.475 1.972 4.716z" clip-rule="evenodd"/><path fill="#000" d="M403.428 697.709 272.129 537.425l13.873-222.466 437.5-127.583 64.906 62.925-104.049 131.051z"/><path fill="#F67979" d="m681.139 327.593 46.079 98.35-4.46 58.713 40.133 118.665-34.187 8.919-20.066 142.447-92.901-14.616-27.747 111.481-229.154-24.278 64.907-221.475-40.876-48.556 52.519-62.429 26.508 28.985 37.16-126.345z"/><path fill="url(#a)" d="m597.158 814.641-86.459-92.158 105.039 17.59z"/><path fill="url(#b)" d="m462.391 681.608-78.037 58.465 39.39-134.272z"/><path fill="url(#c)" d="m720.527 674.175-29.48-51.529 37.656-10.405z"/><path fill="#0C4EC0" d="M654.123 702.043c10.208-1.041 17.842-8.173 17.051-15.932-.791-7.758-9.707-13.204-19.915-12.163s-17.843 8.173-17.052 15.932c.791 7.758 9.707 13.203 19.916 12.163"/><path fill="#0C4EC0" fill-rule="evenodd" d="M642.169 684.117s-.002 0 .572 4.921c.575 4.922.572 4.922.569 4.922l-.011.002-.032.003-.114.013-.417.044c-.362.037-.889.089-1.572.149a186 186 0 0 1-5.889.419c-5.067.285-12.324.522-21.151.335-17.635-.374-41.633-2.44-66.992-9.246-50.779-13.627-107.473-46.454-128.658-122.901l9.549-2.646c19.938 71.946 72.991 102.911 121.678 115.977 24.374 6.541 47.538 8.547 64.633 8.909 8.538.18 15.537-.049 20.384-.322 2.423-.137 4.307-.284 5.575-.396.633-.056 1.113-.103 1.429-.135l.236-.025.113-.012.08-.009.016-.002z" clip-rule="evenodd"/><mask id="d" width="294" height="413" x="296" y="86" maskUnits="userSpaceOnUse" style="mask-type:luminance"><path fill="#fff" d="m589.971 223.544-54.255 15.36-96.12 259.626-142.944-2.973L489.391 86.052z"/></mask><g mask="url(#d)"><path fill="#0C4EC0" fill-rule="evenodd" d="M506.222 186.917c32.545-2.247 60.961 18.713 83.413 48.736l-24.593 18.392c-20.144-26.936-39.766-37.677-56.741-36.489l-.066.005-.066.004c-11.863.728-24.16 7.158-36.307 20.997-12.203 13.902-23.401 34.401-32.569 60.676-18.315 52.485-27.504 125.053-22.521 205.025l-30.65 1.91c-5.174-83.037 4.216-159.853 24.176-217.053 9.968-28.567 22.832-52.985 38.484-70.817 15.692-17.876 35.02-29.989 57.44-31.386" clip-rule="evenodd"/></g><path fill="url(#e)" d="M354.627 558.731c9.662 49.794 48.06 84.229 85.963 77.045 37.904-7.184 60.943-53.51 51.282-103.305s-48.061-84.23-85.965-77.046c-37.903 7.185-60.942 53.511-51.28 103.306"/><defs><linearGradient id="a" x1="525.454" x2="621.4" y1="790.982" y2="715.155" gradientUnits="userSpaceOnUse"><stop offset=".294" stop-opacity="0"/><stop offset="1" stop-opacity=".5"/></linearGradient><linearGradient id="b" x1="448.275" x2="370.23" y1="775.284" y2="579.734" gradientUnits="userSpaceOnUse"><stop offset=".367" stop-opacity="0"/><stop offset=".884" stop-opacity=".5"/></linearGradient><linearGradient id="c" x1="682.629" x2="733.023" y1="691.925" y2="591.568" gradientUnits="userSpaceOnUse"><stop offset=".367" stop-opacity="0"/><stop offset=".928" stop-opacity=".5"/></linearGradient><linearGradient id="e" x1="370.779" x2="503.896" y1="467.501" y2="665.798" gradientUnits="userSpaceOnUse"><stop stop-color="#E0E0E0"/><stop offset=".233" stop-color="#D9D9D9"/><stop offset=".582" stop-color="#C4C4C4"/><stop offset="1" stop-color="#A3A3A3"/></linearGradient></defs></svg>

<svg width="1080" height="1081" viewBox="0 0 1080 1081" fill="none" xmlns="http://www.w3.org/2000/svg">
<path d="M522.348 1002.68C788.189 1002.68 1003.7 787.168 1003.7 521.327C1003.7 255.486 788.189 39.9785 522.348 39.9785C256.507 39.9785 41 255.486 41 521.327C41 787.168 256.507 1002.68 522.348 1002.68Z" fill="#C5D9FB"/>
<path d="M346.119 802.514L283 940.148C283 940.148 340.178 970.596 396.614 986.934C544.881 1030.01 683 975.547 683 975.547L610.227 829.743L346.119 802.514Z" fill="#0C4EC0"/>
<path d="M806.5 292.167C806.5 216.607 867.69 155.417 943.249 155.417C1018.81 155.417 1080 216.607 1080 292.167C1080 367.726 1018.81 428.916 943.249 428.916C867.69 428.916 806.5 367.726 806.5 292.167Z" fill="#35DE90"/>
<path d="M1079.75 292.166C1079.75 367.725 1018.56 428.668 943.248 428.668C867.689 428.668 806.747 367.477 806.747 292.166C806.747 216.607 867.937 155.664 943.248 155.664C1018.56 155.664 1079.75 216.855 1079.75 292.166Z" fill="#35DE90"/>
<path fill-rule="evenodd" clip-rule="evenodd" d="M984.161 230.08C972.085 221.889 957.792 217.421 943.005 217.421C923.536 217.421 904.559 225.364 890.758 239.264C876.957 253.164 869.071 272.028 869.071 291.885C869.071 306.53 873.506 320.926 881.639 333.337C889.772 345.499 901.355 355.179 914.909 360.64C928.464 366.349 943.251 367.838 957.545 364.86C971.839 361.881 985.147 354.931 995.251 344.506C1005.6 334.081 1012.5 320.926 1015.46 306.529C1018.42 292.133 1016.94 277.24 1011.27 263.589C1005.85 249.937 996.483 238.271 984.161 230.08ZM894.948 219.158C909.242 209.478 925.999 204.514 943.25 204.514C966.416 204.514 988.351 213.698 1004.62 230.08C1020.88 246.462 1030 268.801 1030 291.885C1030 309.26 1024.82 326.138 1015.46 340.535C1005.85 354.931 992.293 366.101 976.521 372.803C960.748 379.504 943.251 381.242 926.246 377.767C909.488 374.292 893.961 366.101 881.639 353.69C869.563 341.528 861.185 325.89 857.734 308.763C854.284 291.885 856.009 274.262 862.663 258.128C869.564 242.49 880.654 228.839 894.948 219.158ZM938.568 321.174C939.8 322.415 941.525 323.16 943.25 323.16C944.976 323.16 946.702 322.415 947.934 321.174L981.943 286.921C983.175 285.68 983.914 283.942 983.914 282.205C983.914 280.467 983.175 278.73 981.943 277.488C981.45 276.992 980.711 276.496 979.725 275.999C978.986 275.751 978 275.503 977.261 275.503C976.521 275.503 975.536 275.751 974.796 275.999C974.057 276.247 973.318 276.744 972.579 277.488L943.25 306.778L913.924 277.488C913.431 276.992 912.692 276.496 911.706 275.999C910.966 275.751 909.981 275.503 909.241 275.503C908.502 275.503 907.516 275.751 906.777 275.999C906.038 276.247 905.298 276.744 904.559 277.488C903.327 278.73 902.587 280.467 902.587 282.205C902.587 283.942 903.327 285.68 904.559 286.921L938.568 321.174Z" fill="white"/>
<path d="M403.428 697.709L272.129 537.425L286.002 314.959L723.502 187.376L788.408 250.301L684.359 381.352L403.428 697.709Z" fill="black"/>
<path d="M681.139 327.593L727.218 425.943L722.758 484.656L762.891 603.321L728.704 612.24L708.638 754.687L615.737 740.071L587.99 851.551L358.836 827.274L423.743 605.799L382.867 557.243L435.386 494.814L461.894 523.799L499.054 397.454L681.139 327.593Z" fill="#F67979"/>
<path d="M597.158 814.641L510.699 722.483L615.738 740.073L597.158 814.641Z" fill="url(#paint0_linear_18735_2628)"/>
<path d="M462.391 681.608L384.354 740.073L423.744 605.801L462.391 681.608Z" fill="url(#paint1_linear_18735_2628)"/>
<path d="M720.527 674.175L691.047 622.646L728.703 612.241L720.527 674.175Z" fill="url(#paint2_linear_18735_2628)"/>
<path d="M654.123 702.043C664.331 701.002 671.965 693.87 671.174 686.111C670.383 678.353 661.467 672.907 651.259 673.948C641.051 674.989 633.416 682.121 634.207 689.88C634.998 697.638 643.914 703.083 654.123 702.043Z" fill="#0C4EC0"/>
<path fill-rule="evenodd" clip-rule="evenodd" d="M642.169 684.117C642.169 684.117 642.167 684.117 642.741 689.038C643.316 693.96 643.313 693.96 643.31 693.96L643.299 693.962L643.267 693.965L643.153 693.978C643.056 693.989 642.916 694.004 642.736 694.022C642.374 694.059 641.847 694.111 641.164 694.171C639.798 694.292 637.81 694.447 635.275 694.59C630.208 694.875 622.951 695.112 614.124 694.925C596.489 694.551 572.491 692.485 547.132 685.679C496.353 672.052 439.659 639.225 418.474 562.778L428.023 560.132C447.961 632.078 501.014 663.043 549.701 676.109C574.075 682.65 597.239 684.656 614.334 685.018C622.872 685.198 629.871 684.969 634.718 684.696C637.141 684.559 639.025 684.412 640.293 684.3C640.926 684.244 641.406 684.197 641.722 684.165C641.815 684.155 641.893 684.147 641.958 684.14C642.003 684.135 642.04 684.131 642.071 684.128L642.151 684.119L642.167 684.117L642.169 684.117Z" fill="#0C4EC0"/>
<mask id="mask0_18735_2628" style="mask-type:luminance" maskUnits="userSpaceOnUse" x="296" y="86" width="294" height="413">
<path d="M589.971 223.544L535.716 238.904L439.596 498.53L296.652 495.557L489.391 86.0518L589.971 223.544Z" fill="white"/>
</mask>
<g mask="url(#mask0_18735_2628)">
<path fill-rule="evenodd" clip-rule="evenodd" d="M506.222 186.917C538.767 184.67 567.183 205.63 589.635 235.653L565.042 254.045C544.898 227.109 525.276 216.368 508.301 217.556L508.235 217.561L508.169 217.565C496.306 218.293 484.009 224.723 471.862 238.562C459.659 252.464 448.461 272.963 439.293 299.238C420.978 351.723 411.789 424.291 416.772 504.263L386.122 506.173C380.948 423.136 390.338 346.32 410.298 289.12C420.266 260.553 433.13 236.135 448.782 218.303C464.474 200.427 483.802 188.314 506.222 186.917Z" fill="#0C4EC0"/>
</g>
<path d="M354.627 558.731C364.289 608.525 402.687 642.96 440.59 635.776C478.494 628.592 501.533 582.266 491.872 532.471C482.21 482.676 443.811 448.241 405.907 455.425C368.004 462.61 344.965 508.936 354.627 558.731Z" fill="url(#paint3_linear_18735_2628)"/>
<defs>
<linearGradient id="paint0_linear_18735_2628" x1="525.454" y1="790.982" x2="621.4" y2="715.155" gradientUnits="userSpaceOnUse">
<stop offset="0.2944" stop-opacity="0"/>
<stop offset="1" stop-opacity="0.5"/>
</linearGradient>
<linearGradient id="paint1_linear_18735_2628" x1="448.275" y1="775.284" x2="370.23" y2="579.734" gradientUnits="userSpaceOnUse">
<stop offset="0.3675" stop-opacity="0"/>
<stop offset="0.8842" stop-opacity="0.5"/>
</linearGradient>
<linearGradient id="paint2_linear_18735_2628" x1="682.629" y1="691.925" x2="733.023" y2="591.568" gradientUnits="userSpaceOnUse">
<stop offset="0.3675" stop-opacity="0"/>
<stop offset="0.9278" stop-opacity="0.5"/>
</linearGradient>
<linearGradient id="paint3_linear_18735_2628" x1="370.779" y1="467.501" x2="503.896" y2="665.798" gradientUnits="userSpaceOnUse">
<stop stop-color="#E0E0E0"/>
<stop offset="0.233" stop-color="#D9D9D9"/>
<stop offset="0.5821" stop-color="#C4C4C4"/>
<stop offset="1" stop-color="#A3A3A3"/>
</linearGradient>
</defs>
</svg>
